!!!COM: Richard Wagner
!!!CNT: Deutsch
!!!TXO: Deutsch
!!!OTL: Tra2ume
!!!LYR: Wesendonk
!!!OPR: 5 Gedichte für eine Frauenstimme (Wesendonk Lieder)
!!!OPS: WWV 91 - no opus info available
!!!ONM: No. 5
!!!ENC: Ben Fuhrman
!!!YOR: IMSLP, no information given on the edition
!!!YOR: http://imslp.org/wiki/5_Gedichte_f%C3%BCr_eine_Frauenstimme,_WWV_91_%28Wagner,_Richard%29
!!!ODT: 1857
!!NB: Only vocal melody encoded.
!!NB: First instance of melodic material only encoded.
!!created: 2/10/10 4:05PM
!!proofed and posted: 2/10/10 4:05PM
**kern	**silbe
*clef G2	*
*k[b-e-a-d-]	*
*M3/4	*
*MM[Sehr ma2ssig bewegt, aber nie schleppend]	*
=17	=17
4r	.
{4.e-	{Sag',
8a-	welch
=18	=18
8.cc	wun-
16b-	-der-
4.a-	-ba-
8g	-re
=19	=19
2.g	Tra2u-
=20	=20
4f}	-me}
4r	.
4r	.
=21	=21
4r	.
{4.f	{hal-
8b-	-ten
=22	=22
8.dd-	mei-
16cc	-nen
4.b-	Sinn
8a-	un
=23	=23
2.a-	-fan-
=24	=24
4gn}	-gen,}
4r	.
4r	.
=25	=25
4r	.
{4.f	{dass
8a-	sie
=26	=26
8.dd-	nicht
16cc	wie
4.bn	lee-
8g	-re
=27	=27
2.b-	Scha2u-
=28	=28
4a-}	-me}
4r	.
{8g	{sind
8g	in
=29	=29
8.g-	o2-
16g-	-des
4.f	Nichts
8e-	ver-
=30	=30
4dn	-gan-
4f}	-gen?}
4r	.
=31	=31
{2.cc	{Tra2u-
=32	=32
4b-}	-me,}
4r	.
{8.a-	{die
16g	in
=33	=33
8.g	je-
16f	-der
8.a-	Stun-
16g	-de,
8.b-	je-
16a-	-dem
=34	=34
8.cc	Ta-
16b-	-ge
4.dd	scho2-
8cc	-ner
=35	=35
4cc	blu2h'n,
8b-	und
8cc	mit
8dd-	ih-
8ddn	-rer
=36	=36
8.ff	Him-
16ee-	-mel-
4.dd-	-skun-
8cc	-de
=37	=37
4.cc	se-
8b-	-lig
8cc	durch's
8dd-	Ge-
=38	=38
2ee-	mu2-
4b-	-te
=39	=39
2cc}	ziehn?}
4r	.
=40	=40
{2.dd	{Tra2u-
=41	=41
4cc}	-me,}
4r	.
{8ddn	{die
8een	wie
=42	=42
8.ff	heh-
16an	-re
8.ddn	Strah-
16cc	-len
8b-	in
8an	die
=43	=43
8.an	See-
16g	-le
8.b-	sich
16an	ver-
8.cc	-sen-
16bn	-ken,
=44	=44
8.ddn	dort
16cc	ein
8.ee-	e-
16ddn	-wig
8.cc	Bild
16b-	zu
=45	=45
(2b-	ma-
4an)}	-len:}
=46	=46
{8.a-	{All-
16g	-ver-
4.g	-ges-
8dn	-sen,
=47	=47
8.ddn	Ein-
16cc	-ge-
4.cc	-den-
8dn	-ken!
=48	=48
2.ff	Tra2u-
=49	=49
4ee-}	-me,}
4r	.
{8f	{wie
8g	wenn
=50	=50
8.b-	Fru2h-
16a-	-lings-
8.g-	-son-
16e-	-ne
8f	aus
8g-	dem
=51	=51
8.a-	Schnee
16b-	die
4.cc	Blu2-
8dd-	-ten
=52	=52
4b-	ku2sst,
8an	dass
8b-	zu
8.ff	nie
16ee-	ge-
=53	=53
8.dd-	-ahn-
16cc	-ter
8.gg-	Won-
16ee-	-ne
8.cc	sie
16b-	der
=54	=54
8.a-	neu-
16an	-e
4.b-	Tag
8f	be-
=55	=55
(4a-	-grusst,
4gn)}	|}
{(8.f	{dass
16e-	sie
=56	=56
8.cc	wach-
16a-	|
4e-	-sen,
8.a-	dass
16cc	sie
=57	=58
(4.ee-	blu2-
8ddn)	|
4dd-)	-hen,
=58	=58
2cc	tra2u-
4g	-mend
=59	=59
4.a-	spen-
8b-	-den
8.cc	ih-
16dd-	-ren
=60	=60
[2ee-	Duft,
8ee-]}	|}
8r	.
=61	=61
{2a-	{sanft
4an	an
=62	=62
2b-	dei-
4bn	-ner
=63	=63
2cc	Brust
4bn	ver-
=64	=64
2cc	-glu2-
4cc-}	-hen,}
=65	=65
4r	.
{4f	{und
4b-	dann
=66	=66
4r	.
4b--	sin-
4c	-ken
=67	=67
4r	.
4d-	in
4e-	die
=68	=68
2.f}	Gruft.}
==	==
*-	*-
